Dominus_Dark_Funeral/scalable/apps/plasma-media-center.svg

<svg xmlns="http://www.w3.org/2000/svg" width="48" height="48" viewBox="0 0 12.7 12.7"><defs><linearGradient id="h" x1="17.36" x2="24.01" y1="8" y2="26.04" gradientTransform="matrix(.18464 0 0 .17566 1.91 .8)" gradientUnits="userSpaceOnUse"><stop stop-color="#fff" offset="0"/><stop stop-color="#fff" stop-opacity="0" offset=".86"/><stop stop-color="#fff" stop-opacity="0" offset="1"/></linearGradient><linearGradient id="g" x1="37.9" x2="37.41" y1="17.68" y2="30.81" gradientTransform="matrix(.15358 0 0 .14295 2.65 1.86)" gradientUnits="userSpaceOnUse"><stop stop-color="#010000" offset="0"/><stop stop-opacity=".74" offset="1"/></linearGradient><linearGradient id="f" x1="20.15" x2="20.1" y2="31.98" gradientTransform="matrix(.16352 0 0 .1817 2.43 1.6)" gradientUnits="userSpaceOnUse"><stop stop-color="#f0f0f0" offset="0"/><stop stop-color="#d2d2d2" offset="1"/></linearGradient><linearGradient id="e" x1="320.28" x2="320.28" y1="86.91" y2="93.38" gradientTransform="matrix(.1699 0 0 .17053 -48.02 -7.42)" gradientUnits="userSpaceOnUse"><stop stop-color="#221f25" offset="0"/><stop stop-color="#bebebe" offset=".35"/><stop stop-color="#c8c8c8" offset=".58"/><stop stop-color="#e6e6e6" offset=".72"/><stop stop-color="#8c8c8c" offset="1"/></linearGradient><linearGradient gradientTransform="scale(.26458)" id="d" x1="9.5" x2="47.97" y1="6.44" y2="47.79" gradientUnits="userSpaceOnUse"><stop offset="0"/><stop stop-opacity="0" offset="1"/></linearGradient><linearGradient gradientTransform="scale(.26458)" id="c" x1="24.03" x2="23.71" y1=".31" y2="47.69" gradientUnits="userSpaceOnUse"><stop stop-color="#6e6e6e" offset="0"/><stop stop-color="#e1e1e1" offset="1"/></linearGradient><linearGradient id="a"><stop offset="0" stop-color="#acf"/><stop offset="1" stop-color="#fff" stop-opacity="0"/></linearGradient><linearGradient id="b"><stop stop-color="#ee6406"/><stop offset="1" stop-color="#ffce0d"/></linearGradient></defs><path d="M6.35.1C4.81.1 3.57.39 2.66.97a3.67 3.67 0 0 0-1.65 3.25c0 1.91 1.53 4.47 2 5.2a14.41 14.41 0 0 0 1.65 2.16c.68.7 1.21 1.03 1.69 1.03s1.01-.33 1.69-1.03c.52-.55 1.11-1.31 1.65-2.16.47-.73 2-3.29 2-5.2 0-1.42-.57-2.55-1.65-3.25A6.76 6.76 0 0 0 6.35.09z" fill="url(#c)"/><path d="M7.35 12.17c.22-.16.43-.32.69-.59a18.07 18.07 0 0 0 2.83-4.32c.22-.48.43-1 .58-1.52.15-.53.24-1.04.24-1.52 0-.35-.03-.69-.1-1-.01-.07-.04-.12-.06-.17L10.2 1.7l-.51 5.12-7.17.5z" opacity=".4" fill="url(#d)"/><path d="M5.41 6.65v1.2c0 .3-.32.5-.32.5-.13.02-.19.08-.19.17 0 .1.09.17.2.17h2.5c.12 0 .2-.07.2-.17s-.06-.15-.2-.17c0 0-.3-.2-.3-.5v-1.2z" fill="url(#e)"/><rect ry=".17" rx=".17" height="5.63" width="7.67" y="1.7" x="2.51" fill="url(#f)"/><path d="M3.02 2.21h6.66v4.61H3.02z" fill="url(#g)" fill-rule="evenodd"/><path d="M3.02 2.2v3.17a207 207 0 0 0 6.65-1.94V2.2z" opacity=".3" fill="url(#h)" fill-rule="evenodd"/><path d="M6.35.1C4.81.1 3.57.39 2.66.97a3.67 3.67 0 0 0-1.65 3.25c0 1.91 1.53 4.47 2 5.2a14.41 14.41 0 0 0 1.65 2.16c.68.7 1.21 1.03 1.69 1.03s1.01-.33 1.69-1.03c.52-.55 1.1-1.31 1.65-2.16.47-.73 2-3.29 2-5.2 0-1.42-.57-2.55-1.65-3.25A6.76 6.76 0 0 0 6.35.09zm0 .03c.56.02 1.09.07 1.56.18a5.77 5.77 0 0 1 1.6.66 3.41 3.41 0 0 1 1.23 1.36 3.98 3.98 0 0 1 .43 1.89c0 .48-.1 1-.25 1.52a11.43 11.43 0 0 1-.59 1.52 18.41 18.41 0 0 1-1.17 2.16 14.4 14.4 0 0 1-1.66 2.16 4.76 4.76 0 0 1-.91.78 1 1 0 0 1-.24.1.87.87 0 0 1-.24-.1 4.59 4.59 0 0 1-.92-.78 14.28 14.28 0 0 1-1.65-2.16 18.41 18.41 0 0 1-1.18-2.16 11.43 11.43 0 0 1-.58-1.52 5.54 5.54 0 0 1-.25-1.52 4.54 4.54 0 0 1 .43-1.9A3.46 3.46 0 0 1 3.19.97a5.88 5.88 0 0 1 1.6-.66c.47-.1 1-.16 1.56-.18z" opacity=".2"/><path d="M3.54 6.2a.08.08 0 1 0 0 .16h3.75v-.15z" fill="#0ff"/><path d="M7.3 6.2v.16h1.9a.08.08 0 1 0 0-.15z" fill="#999"/><rect height=".31" rx=".15" y="6.13" x="7.14" width=".31" fill="#fff"/><path d="M7.27 4.23l-1.55-.92v1.85z" fill="#fff" fill-rule="evenodd"/></svg>

<?xml version="1.0" encoding="UTF-8" standalone="no"?>
<svg
   xmlns:dc="http://purl.org/dc/elements/1.1/"
   xmlns:cc="http://creativecommons.org/ns#"
   xmlns:rdf="http://www.w3.org/1999/02/22-rdf-syntax-ns#"
   xmlns:svg="http://www.w3.org/2000/svg"
   xmlns="http://www.w3.org/2000/svg"
   xmlns:sodipodi="http://sodipodi.sourceforge.net/DTD/sodipodi-0.dtd"
   xmlns:inkscape="http://www.inkscape.org/namespaces/inkscape"
   width="48"
   height="48"
   viewBox="0 0 12.7 12.7"
   version="1.1"
   id="svg74"
   sodipodi:docname="plasma-media-center.svg"
   inkscape:version="0.92.4 (5da689c313, 2019-01-14)">
  <metadata
     id="metadata78">
    <rdf:RDF>
      <cc:Work
         rdf:about="">
        <dc:format>image/svg+xml</dc:format>
        <dc:type
           rdf:resource="http://purl.org/dc/dcmitype/StillImage" />
        <dc:title></dc:title>
      </cc:Work>
    </rdf:RDF>
  </metadata>
  <sodipodi:namedview
     pagecolor="#ffffff"
     bordercolor="#666666"
     borderopacity="1"
     objecttolerance="10"
     gridtolerance="10"
     guidetolerance="10"
     inkscape:pageopacity="0"
     inkscape:pageshadow="2"
     inkscape:window-width="1112"
     inkscape:window-height="480"
     id="namedview76"
     showgrid="false"
     inkscape:zoom="4.9166667"
     inkscape:cx="2.1355932"
     inkscape:cy="24"
     inkscape:window-x="0"
     inkscape:window-y="25"
     inkscape:window-maximized="0"
     inkscape:current-layer="svg74" />
  <defs
     id="defs50">
    <linearGradient
       id="h"
       x1="17.36"
       x2="24.01"
       y1="8"
       y2="26.04"
       gradientTransform="matrix(0.18464,0,0,0.17566,1.91,0.8)"
       gradientUnits="userSpaceOnUse">
      <stop
         stop-color="#fff"
         offset="0"
         id="stop2" />
      <stop
         stop-color="#fff"
         stop-opacity="0"
         offset=".86"
         id="stop4" />
      <stop
         stop-color="#fff"
         stop-opacity="0"
         offset="1"
         id="stop6" />
    </linearGradient>
    <linearGradient
       id="g"
       x1="37.9"
       x2="37.41"
       y1="17.68"
       y2="30.81"
       gradientTransform="matrix(0.15358,0,0,0.14295,2.65,1.86)"
       gradientUnits="userSpaceOnUse">
      <stop
         stop-color="#010000"
         offset="0"
         id="stop9" />
      <stop
         stop-opacity=".74"
         offset="1"
         id="stop11" />
    </linearGradient>
    <linearGradient
       id="f"
       x1="20.15"
       x2="20.1"
       y2="31.98"
       gradientTransform="matrix(0.16352,0,0,0.1817,2.43,1.6)"
       gradientUnits="userSpaceOnUse">
      <stop
         stop-color="#f0f0f0"
         offset="0"
         id="stop14" />
      <stop
         stop-color="#d2d2d2"
         offset="1"
         id="stop16" />
    </linearGradient>
    <linearGradient
       id="e"
       x1="320.28"
       x2="320.28"
       y1="86.91"
       y2="93.38"
       gradientTransform="matrix(0.1699,0,0,0.17053,-48.02,-7.42)"
       gradientUnits="userSpaceOnUse">
      <stop
         stop-color="#221f25"
         offset="0"
         id="stop19" />
      <stop
         stop-color="#bebebe"
         offset=".35"
         id="stop21" />
      <stop
         stop-color="#c8c8c8"
         offset=".58"
         id="stop23" />
      <stop
         stop-color="#e6e6e6"
         offset=".72"
         id="stop25" />
      <stop
         stop-color="#8c8c8c"
         offset="1"
         id="stop27" />
    </linearGradient>
    <linearGradient
       gradientTransform="scale(0.26458)"
       id="d"
       x1="9.5"
       x2="47.97"
       y1="6.44"
       y2="47.79"
       gradientUnits="userSpaceOnUse">
      <stop
         offset="0"
         id="stop30" />
      <stop
         stop-opacity="0"
         offset="1"
         id="stop32" />
    </linearGradient>
    <linearGradient
       gradientTransform="scale(0.26458)"
       id="c"
       x1="24.03"
       x2="23.71"
       y1=".31"
       y2="47.69"
       gradientUnits="userSpaceOnUse">
      <stop
         stop-color="#6e6e6e"
         offset="0"
         id="stop35" />
      <stop
         stop-color="#e1e1e1"
         offset="1"
         id="stop37" />
    </linearGradient>
    <linearGradient
       id="a">
      <stop
         offset="0"
         stop-color="#acf"
         id="stop40" />
      <stop
         offset="1"
         stop-color="#fff"
         stop-opacity="0"
         id="stop42" />
    </linearGradient>
    <linearGradient
       id="b">
      <stop
         stop-color="#ee6406"
         id="stop45" />
      <stop
         offset="1"
         stop-color="#ffce0d"
         id="stop47" />
    </linearGradient>
  </defs>
  <path
     d="M 6.35,0.1 C 4.81,0.1 3.57,0.39 2.66,0.97 A 3.67,3.67 0 0 0 1.01,4.22 c 0,1.91 1.53,4.47 2,5.2 a 14.41,14.41 0 0 0 1.65,2.16 c 0.68,0.7 1.21,1.03 1.69,1.03 0.48,0 1.01,-0.33 1.69,-1.03 0.52,-0.55 1.11,-1.31 1.65,-2.16 0.47,-0.73 2,-3.29 2,-5.2 0,-1.42 -0.57,-2.55 -1.65,-3.25 A 6.76,6.76 0 0 0 6.35,0.09 Z"
     id="path52"
     style="fill:url(#c)"
     inkscape:connector-curvature="0" />
  <path
     d="m 7.35,12.17 c 0.22,-0.16 0.43,-0.32 0.69,-0.59 a 18.07,18.07 0 0 0 2.83,-4.32 c 0.22,-0.48 0.43,-1 0.58,-1.52 0.15,-0.53 0.24,-1.04 0.24,-1.52 0,-0.35 -0.03,-0.69 -0.1,-1 C 11.58,3.15 11.55,3.1 11.53,3.05 L 10.2,1.7 9.69,6.82 2.52,7.32 Z"
     id="path54"
     style="opacity:0.4;fill:url(#d)"
     inkscape:connector-curvature="0" />
  <path
     d="m 5.41,6.65 v 1.2 c 0,0.3 -0.32,0.5 -0.32,0.5 C 4.96,8.37 4.9,8.43 4.9,8.52 c 0,0.1 0.09,0.17 0.2,0.17 h 2.5 c 0.12,0 0.2,-0.07 0.2,-0.17 0,-0.1 -0.06,-0.15 -0.2,-0.17 0,0 -0.3,-0.2 -0.3,-0.5 v -1.2 z"
     id="path56"
     style="fill:url(#e)"
     inkscape:connector-curvature="0" />
  <rect
     ry="0.17"
     rx="0.17"
     height="5.6300001"
     width="7.6700001"
     y="1.7"
     x="2.51"
     id="rect58"
     style="fill:url(#f)" />
  <path
     d="M 3.02,2.21 H 9.68 V 6.82 H 3.02 Z"
     id="path60"
     style="fill:url(#g);fill-rule:evenodd"
     inkscape:connector-curvature="0" />
  <path
     d="M 3.02,2.2 V 5.37 A 207,207 0 0 0 9.67,3.43 V 2.2 Z"
     id="path62"
     style="opacity:0.3;fill:url(#h);fill-rule:evenodd"
     inkscape:connector-curvature="0" />
  <path
     d="M 6.35,0.1 C 4.81,0.1 3.57,0.39 2.66,0.97 A 3.67,3.67 0 0 0 1.01,4.22 c 0,1.91 1.53,4.47 2,5.2 a 14.41,14.41 0 0 0 1.65,2.16 c 0.68,0.7 1.21,1.03 1.69,1.03 0.48,0 1.01,-0.33 1.69,-1.03 0.52,-0.55 1.1,-1.31 1.65,-2.16 0.47,-0.73 2,-3.29 2,-5.2 0,-1.42 -0.57,-2.55 -1.65,-3.25 A 6.76,6.76 0 0 0 6.35,0.09 Z m 0,0.03 C 6.91,0.15 7.44,0.2 7.91,0.31 a 5.77,5.77 0 0 1 1.6,0.66 3.41,3.41 0 0 1 1.23,1.36 3.98,3.98 0 0 1 0.43,1.89 c 0,0.48 -0.1,1 -0.25,1.52 A 11.43,11.43 0 0 1 10.33,7.26 18.41,18.41 0 0 1 9.16,9.42 14.4,14.4 0 0 1 7.5,11.58 4.76,4.76 0 0 1 6.59,12.36 1,1 0 0 1 6.35,12.46 0.87,0.87 0 0 1 6.11,12.36 4.59,4.59 0 0 1 5.19,11.58 14.28,14.28 0 0 1 3.54,9.42 18.41,18.41 0 0 1 2.36,7.26 11.43,11.43 0 0 1 1.78,5.74 5.54,5.54 0 0 1 1.53,4.22 4.54,4.54 0 0 1 1.96,2.32 3.46,3.46 0 0 1 3.19,0.97 5.88,5.88 0 0 1 4.79,0.31 c 0.47,-0.1 1,-0.16 1.56,-0.18 z"
     id="path64"
     inkscape:connector-curvature="0"
     style="opacity:0.2" />
  <path
     d="m 3.54,6.2 a 0.08,0.08 0 1 0 0,0.16 H 7.29 V 6.21 Z"
     id="path66"
     inkscape:connector-curvature="0"
     style="fill:#00ffff" />
  <path
     d="m 7.3,6.2 v 0.16 h 1.9 a 0.08,0.08 0 1 0 0,-0.15 z"
     id="path68"
     inkscape:connector-curvature="0"
     style="fill:#999999" />
  <rect
     height="0.31"
     rx="0.15000001"
     y="6.1300001"
     x="7.1399999"
     width="0.31"
     id="rect70"
     style="fill:#ffffff" />
  <path
     d="M 7.27,4.23 5.72,3.31 v 1.85 z"
     id="path72"
     inkscape:connector-curvature="0"
     style="fill:#ffffff;fill-rule:evenodd" />
</svg>
